dist/assets/images/social/tg.svg

<svg width="26" height="22" viewBox="0 0 26 22" fill="none" xmlns="http://www.w3.org/2000/svg">
<path d="M10.2022 14.4995L9.77209 20.6418C10.3874 20.6418 10.6539 20.3734 10.9735 20.0511L13.8585 17.2517L19.8365 21.6967C20.9329 22.3171 21.7053 21.9904 22.0011 20.6726L25.925 2.00354L25.9261 2.00244C26.2738 0.356844 25.34 -0.286652 24.2718 0.117045L1.20705 9.0831C-0.367066 9.7035 -0.343232 10.5945 0.939465 10.9982L6.83619 12.8605L20.5331 4.15842C21.1777 3.72503 21.7638 3.96483 21.2817 4.39822L10.2022 14.4995Z" fill="#FEFDFD"/>
</svg>

<svg width="26" height="22" fill="none" xmlns="http://www.w3.org/2000/svg"><path d="M10.202 14.5l-.43 6.142c.615 0 .882-.269 1.201-.59l2.885-2.8 5.979 4.445c1.096.62 1.868.293 2.164-1.024l3.924-18.67h.001c.348-1.646-.586-2.29-1.654-1.886L1.207 9.083c-1.574.62-1.55 1.511-.268 1.915l5.897 1.863 13.697-8.703c.645-.433 1.23-.193.749.24L10.202 14.5z" fill="#FEFDFD"/></svg>
